packages/blockchain-info-components/src/Images/img/blank-card.svg

<svg fill="none" height="22" viewBox="0 0 28 22" width="28" xmlns="http://www.w3.org/2000/svg"><path d="m24.6666.333008h-21.33331c-1.48 0-2.653331 1.186662-2.653331 2.666662l-.013333 16.00003c0 1.48 1.186664 2.6666 2.666664 2.6666h21.33331c1.48 0 2.6667-1.1866 2.6667-2.6666v-16.00003c0-1.48-1.1867-2.666662-2.6667-2.666662zm0 18.666692h-21.33331v-8h21.33331zm0-13.33336h-21.33331v-2.66667h21.33331z" fill="#121d33"/></svg>

<svg width="28" height="22" viewBox="0 0 28 22" fill="none" xmlns="http://www.w3.org/2000/svg">
<path d="M24.6666 0.333008H3.33329C1.85329 0.333008 0.679959 1.51967 0.679959 2.99967L0.666626 18.9997C0.666626 20.4797 1.85329 21.6663 3.33329 21.6663H24.6666C26.1466 21.6663 27.3333 20.4797 27.3333 18.9997V2.99967C27.3333 1.51967 26.1466 0.333008 24.6666 0.333008ZM24.6666 18.9997H3.33329V10.9997H24.6666V18.9997ZM24.6666 5.66634H3.33329V2.99967H24.6666V5.66634Z" fill="#121D33"/>
</svg>
